X: 9
T: The Pigeon On The Gate
R: reel
M: 4/4
L: 1/8
K: Edor
|:GA|BE~E2 BAFA|BE~E2 BAFE|D3B ADFE|DEFA BAFA|BE~E2 (3Bcd cA|~B2 dB BAFE|DEFA dfec|dBAF E2:||FA|:Beee efed|(3Bcd ef gfed|BAFA dedB|A~F3 DEFA|Beef efed|(3Bcd ef ggfg|a2(3gfe fd ec|dBAF E3A:||


Tune 517	Setting 30097

